groups/boron/boronic_ester.svg

<?xml version='1.0' encoding='iso-8859-1'?>
<svg version='1.1' baseProfile='full'
              xmlns='http://www.w3.org/2000/svg'
                      xmlns:rdkit='http://www.rdkit.org/xml'
                      xmlns:xlink='http://www.w3.org/1999/xlink'
                  xml:space='preserve'
width='256px' height='256px' viewBox='0 0 256 256'>
<!-- END OF HEADER -->
<rect style='opacity:1.0;fill:#FFFFFF;stroke:none' width='256.0' height='256.0' x='0.0' y='0.0'> </rect>
<path class='bond-0 atom-0 atom-1' d='M 126.8,87.1 L 126.8,122.7' style='fill:none;fill-rule:evenodd;stroke:#000000;stroke-width:2.0px;stroke-linecap:butt;stroke-linejoin:miter;stroke-opacity:1' />
<path class='bond-1 atom-1 atom-2' d='M 136.4,137.9 L 156.3,149.4' style='fill:none;fill-rule:evenodd;stroke:#000000;stroke-width:2.0px;stroke-linecap:butt;stroke-linejoin:miter;stroke-opacity:1' />
<path class='bond-2 atom-2 atom-3' d='M 175.6,149.4 L 195.5,137.9' style='fill:none;fill-rule:evenodd;stroke:#000000;stroke-width:2.0px;stroke-linecap:butt;stroke-linejoin:miter;stroke-opacity:1' />
<path class='bond-3 atom-1 atom-4' d='M 117.1,137.9 L 97.2,149.4' style='fill:none;fill-rule:evenodd;stroke:#000000;stroke-width:2.0px;stroke-linecap:butt;stroke-linejoin:miter;stroke-opacity:1' />
<path class='bond-4 atom-4 atom-5' d='M 77.9,149.3 L 58.0,137.8' style='fill:none;fill-rule:evenodd;stroke:#000000;stroke-width:2.0px;stroke-linecap:butt;stroke-linejoin:miter;stroke-opacity:1' />
<path class='atom-1' d='M104.188,87.0381 C104.187,88.7355 106.45,88.7373 106.451,87.0399 C106.453,85.3425 108.716,85.3443 108.715,87.0417 C108.713,88.7392 110.977,88.741 110.978,87.0435 C110.979,85.3461 113.243,85.3479 113.241,87.0453 C113.24,88.7428 115.503,88.7446 115.505,87.0471 C115.506,85.3497 117.769,85.3515 117.768,87.049 C117.767,88.7464 120.03,88.7482 120.031,87.0508 C120.033,85.3533 122.296,85.3551 122.295,87.0526 C122.293,88.75 124.556,88.7518 124.558,87.0544 C124.559,85.3569 126.822,85.3588 126.821,87.0562 C126.82,88.7536 129.083,88.7554 129.084,87.058 C129.086,85.3606 131.349,85.3624 131.348,87.0598 C131.346,88.7573 133.61,88.7591 133.611,87.0616 C133.612,85.3642 135.876,85.366 135.874,87.0634 C135.873,88.7609 138.136,88.7627 138.138,87.0653 C138.139,85.3678 140.402,85.3696 140.401,87.0671 C140.399,88.7645 142.663,88.7663 142.664,87.0689 C142.665,85.3714 144.929,85.3732 144.927,87.0707 C144.926,88.7681 147.189,88.7699 147.191,87.0725 C147.192,85.3751 149.455,85.3769 149.454,87.0743' style='fill:none;stroke:#7F7F7F;stroke-width:2.0px;stroke-linecap:butt;stroke-linejoin:miter;stroke-opacity:1' />
<text x='118.6' y='145.9' class='atom-1' style='font-size:27px;font-style:normal;font-weight:normal;fill-opacity:1;stroke:none;font-family:sans-serif;text-anchor:start;fill:#000000' >B</text>
<text x='157.8' y='168.6' class='atom-2' style='font-size:27px;font-style:normal;font-weight:normal;fill-opacity:1;stroke:none;font-family:sans-serif;text-anchor:start;fill:#000000' >O</text>
<text x='197.0' y='146.0' class='atom-3' style='font-size:27px;font-style:normal;font-weight:normal;fill-opacity:1;stroke:none;font-family:sans-serif;text-anchor:start;fill:#000000' >C</text>
<text x='215.8' y='146.0' class='atom-3' style='font-size:27px;font-style:normal;font-weight:normal;fill-opacity:1;stroke:none;font-family:sans-serif;text-anchor:start;fill:#000000' >H</text>
<text x='234.5' y='156.8' class='atom-3' style='font-size:17px;font-style:normal;font-weight:normal;fill-opacity:1;stroke:none;font-family:sans-serif;text-anchor:start;fill:#000000' >3</text>
<text x='79.4' y='168.5' class='atom-4' style='font-size:27px;font-style:normal;font-weight:normal;fill-opacity:1;stroke:none;font-family:sans-serif;text-anchor:start;fill:#000000' >O</text>
<text x='12.8' y='145.8' class='atom-5' style='font-size:27px;font-style:normal;font-weight:normal;fill-opacity:1;stroke:none;font-family:sans-serif;text-anchor:start;fill:#000000' >H</text>
<text x='31.5' y='156.7' class='atom-5' style='font-size:17px;font-style:normal;font-weight:normal;fill-opacity:1;stroke:none;font-family:sans-serif;text-anchor:start;fill:#000000' >3</text>
<text x='40.2' y='145.8' class='atom-5' style='font-size:27px;font-style:normal;font-weight:normal;fill-opacity:1;stroke:none;font-family:sans-serif;text-anchor:start;fill:#000000' >C</text>
</svg>

<svg height="256" viewBox="0 0 256 256" width="256" xmlns="http://www.w3.org/2000/svg"><path d="m0 0h256v256h-256z" fill="#fff"/><path d="m126.8 87.1v35.6" fill="none" stroke="#000" stroke-width="2"/><path d="m136.4 137.9 19.9 11.5" fill="none" stroke="#000" stroke-width="2"/><path d="m175.6 149.4 19.9-11.5" fill="none" stroke="#000" stroke-width="2"/><path d="m117.1 137.9-19.9 11.5" fill="none" stroke="#000" stroke-width="2"/><path d="m77.9 149.3-19.9-11.5" fill="none" stroke="#000" stroke-width="2"/><path d="m104.188 87.038c-.001 1.698 2.262 1.699 2.263.002.002-1.697 2.265-1.696 2.264.002-.002 1.697 2.262 1.699 2.263.002.001-1.698 2.265-1.696 2.263.001-.001 1.698 2.262 1.7 2.264.002.001-1.697 2.264-1.695 2.263.002s2.262 1.699 2.263.002c.002-1.698 2.265-1.696 2.264.002-.002 1.697 2.261 1.699 2.263.001.001-1.697 2.264-1.695 2.263.002-.001 1.698 2.262 1.699 2.263.002.002-1.697 2.265-1.696 2.264.002-.002 1.697 2.262 1.699 2.263.002.001-1.698 2.265-1.696 2.263.001-.001 1.698 2.262 1.7 2.264.002.001-1.697 2.264-1.695 2.263.002-.002 1.698 2.262 1.699 2.263.002.001-1.698 2.265-1.696 2.263.002-.001 1.697 2.262 1.699 2.264.002.001-1.698 2.264-1.696 2.263.001" fill="none" stroke="#7f7f7f" stroke-width="2"/><g font-family="sans-serif"><text font-size="27" x="118.6" y="145.9">B</text><text font-size="27" x="157.8" y="168.6">O</text><text font-size="27" x="197" y="146">C</text><text font-size="27" x="215.8" y="146">H</text><text font-size="17" x="234.5" y="156.8">3</text><text font-size="27" x="79.4" y="168.5">O</text><text font-size="27" x="12.8" y="145.8">H</text><text font-size="17" x="31.5" y="156.7">3</text><text font-size="27" x="40.2" y="145.8">C</text></g></svg>
